!!!!SEGMENT: Ver3001-Vita_della_mia_vita.krn
!!!id: Ver3001
!!!AGN: Madrigal
!!!voices: 4
!!!COM: Philippe Verdelot
!!!OTL: Vita della mia vita
**kern	**kern	**kern	**kern
*part4	*part3	*part2	*part1
*staff4	*staff3	*staff2	*staff1
*I"Bassus	*I"Tenor	*I"Altus	*I"Superius
*I'B	*I'T	*I'A	*I'S
*clefF4	*clefGv2	*clefG2	*clefG2
*k[]	*k[]	*k[]	*k[]
*C:	*C:	*C:	*C:
*M2/1	*M2/1	*M2/1	*M2/1
*met(C)	*met(C)	*met(C)	*met(C)
=1	=1	=1	=1
0D	0d	0f	1r
.	.	.	[1a
=2	=2	=2	=2
1.A	1c	1e	1a]
.	2.f	1a	1cc
2F	.	.	.
.	4e	.	.
=3	=3	=3	=3
2G	2d	2g	2b
2A	2c	1f	1a
1B-X	[1d	.	.
.	.	4e	2g
.	.	4d	.
=4	=4	=4	=4
0A	2d]	1f	1a
.	4c	.	.
.	4B	.	.
.	1c	1e	1a
=5	=5	=5	=5
1D	2r	2r	2r
.	2f	2a	2dd
2A	2e	2a	2cc
2B	2d	2g	2dd
=6	=6	=6	=6
2A	2e	2a	2dd
2A	2e	2a	2cc
1G	1g	2.b	1dd
.	.	4a	.
=7	=7	=7	=7
1c	1e	4g	1cc
.	.	4f	.
.	.	1g	.
2G	2d	.	2b
2A	[2c	2f	2a
=8	=8	=8	=8
1G	2c]	2f	1b
.	2B	2e	.
1F	1c	1f	1a
=9	=9	=9	=9
2r	2r	2r	2r
2D	2d	2a	2f
2A	2c	2a	2e
2B	2d	2g	2d
=10	=10	=10	=10
2A	2d	2a	2e
2A	2c	2a	2e
1D	1d	[1f	4d
.	.	.	4e
.	.	.	4f
.	.	.	4g
=11	=11	=11	=11
2.F	1c	1f]	4a
.	.	.	4b
.	.	.	1cc
4G	.	.	.
1A	2r	1e	.
.	2c	.	4b
.	.	.	4a
=12	=12	=12	=12
1D	2.d	1f	2b
.	.	.	1a
.	4c	.	.
1E	1B	1e	.
.	.	.	2g#i
=13	=13	=13	=13
1F	1A	2d	0a
.	.	2c	.
1D	1d	1f	.
=14	=14	=14	=14
0A	0c	0e	0a
=15	=15	=15	=15
0A	0e	0a	0cc
=16	=16	=16	=16
2F	2f	2a	2cc
2F	2f	2a	2cc
2B-i	2f	2d	2dd
2B-i	2g	2d	2dd
=17	=17	=17	=17
2A	2a	2e	2cc
2A	2a	2f	2cc
2G	2d	2g	2b
2F	[2f	[2a	2cc
=18	=18	=18	=18
1B-i	2f]	4a]	1.dd
.	.	8gL	.
.	.	8fJ	.
.	4e	2g	.
.	4d	.	.
[1A	1f	[1a	.
.	.	.	4cc
.	.	.	4b
=19	=19	=19	=19
1A]	1e	1a]	1cc
1D	2r	2r	1dd
.	[2f	2a	.
=20	=20	=20	=20
2F	4f]	2a	2cc
.	4e	.	.
2G	2d	4g	2b
.	.	4f	.
2A	2c	2e	2a
2B-i	2d	2d	2g
=21	=21	=21	=21
1A	2.c	1e	1a
.	4B	.	.
1D	1A	1d	1f
=22	=22	=22	=22
2r	2r	2r	2r
2D	2d	2f	2a
2G	2d	2g	2b
2F	[2f	[2a	2cc
=23	=23	=23	=23
1B-i	2f]	2a]	1dd
.	4e	2g	.
.	4d	.	.
2A	2e	2a	1cc
2F	2f	2a	.
=24	=24	=24	=24
2G	2d	2g	2b
2A	2c	2f	2a
1E	2B	2.e	2a
.	2B	.	2g
.	.	4d	.
=25	=25	=25	=25
2F	2A	2c	0a
2D	2.d	2f	.
1A	.	1e	.
.	8c#iL	.	.
.	8BJ	.	.
.	2c#i	.	.
=26	=26	=26	=26
1D	1d	1f	1a
2r	2r	2r	2r
2D	2d	2f	2a
=27	=27	=27	=27
2F	2c	2f	2a
2C	2c	2e	2g
2D	2A	2d	2f
2AA	2A	2c	2e
=28	=28	=28	=28
1D	1A	1d	1f
1AA	1A	1c	1e
=29	=29	=29	=29
2r	2r	2r	2r
2D	2A	2d	2f
2G	2B	2d	2g
2F	2c	2f	2a
=30	=30	=30	=30
2D	2d	2f	2a
2E	2B	4e	2g
.	.	4d	.
2F	2A	2c	2a
2C	2e	2g	2cc
=31	=31	=31	=31
2D	2d	2f	2b
2E	1B	1e	2g
1F	.	.	1a
.	2A	2d	.
=32	=32	=32	=32
1E	1B	1e	1g
2r	1d	1f	2r
2D	.	.	2a
=33	=33	=33	=33
2F	2c	2f	2a
2F	2A	2f	2a
2G	2B	2d	2.g
2G	[2d	2d	.
.	.	.	4f
=34	=34	=34	=34
1A	4d]	1a	1e
.	8c#iL	.	.
.	8BJ	.	.
.	2c#i	.	.
1D	1d	1f	1d
=35	=35	=35	=35
2r	2r	2r	2r
2D	2d	2f	2a
2G	2d	2g	2b
2F	2f	2a	2dd
=36	=36	=36	=36
2G	2e	2g	2dd
2A	2e	2e	2cc
[1D	2d	1f	2dd
.	[2f	.	4d
.	.	.	4e
=37	=37	=37	=37
1D]	4f]	1d	4f
.	4e	.	4g
.	4f	.	4a
.	4d	.	4b
1C	1e	[1g	2.cc
.	.	.	8bL
.	.	.	8aJ
=38	=38	=38	=38
2G	2d	2g]	2b
2A	2c	2f	1a
1E	1B	2.e	.
.	.	.	2g#i
.	.	4d	.
=39	=39	=39	=39
1AA	1A	1c	1a
2r	2r	2r	2r
2D	2f	2d	2a
=40	=40	=40	=40
2F	2f	2c	2a
2C	2e	2c	2g
1D	1d	1A	1f
=41	=41	=41	=41
00AAl	00cl	00Al	00el
==	==	==	==
*-	*-	*-	*-
!!!system-decoration: [*]
!!!RDF**kern: i = editorial accidental
!!!RDF**kern: l = terminal long
!!!ENC: Benjamin Ory
!!!END: 2024/1/25
!!!EED: Benjamin Ory
!!!EEV: 2024/01/25
!!!YEC: Copyright 2024 Benjamin Ory, All Rights Reserved
!!!ONB: Translated from MusicXML on 2024/01/25
